src/assets/icons/weeks,simple,36.svg

<svg width="48" height="48" viewBox="0 0 48 48" fill="none" xmlns="http://www.w3.org/2000/svg">
<rect opacity="0.2" x="5" y="5" width="38" height="38" rx="4" fill="black"/>
<path d="M5 13C5 9.22876 5 7.34315 6.17157 6.17157C7.34315 5 9.22876 5 13 5H35C38.7712 5 40.6569 5 41.8284 6.17157C43 7.34315 43 9.22876 43 13V15H5V13Z" fill="black"/>
<path d="M16.0344 38.2386C19.9549 38.2386 22.7589 36.0824 22.7504 33.0994C22.7589 30.9261 21.3782 29.375 18.8129 29.0511V28.9148C20.7646 28.5653 22.1112 27.1847 22.1026 25.2244C22.1112 22.4716 19.6992 20.3068 16.0856 20.3068C12.506 20.3068 9.81286 22.4034 9.76172 25.4205H13.2987C13.3413 24.0909 14.56 23.2301 16.0685 23.2301C17.56 23.2301 18.5572 24.1335 18.5487 25.446C18.5572 26.8182 17.3896 27.7472 15.7106 27.7472H14.0827V30.4574H15.7106C17.6879 30.4574 18.9237 31.446 18.9151 32.8523C18.9237 34.2415 17.7305 35.196 16.043 35.196C14.4151 35.196 13.1964 34.3438 13.1282 33.0653H9.41229C9.47195 36.1165 12.1992 38.2386 16.0344 38.2386ZM32.1019 38.2386C35.9883 38.2557 38.6389 35.7074 38.6303 32.1534C38.6389 28.8807 36.3548 26.5199 33.261 26.5199C31.3434 26.5199 29.6474 27.4403 28.8633 28.983H28.744C28.761 25.5824 29.9542 23.4688 32.2298 23.4688C33.5678 23.4688 34.5309 24.2017 34.8121 25.4205H38.4514C38.1019 22.5483 35.7156 20.3068 32.2298 20.3068C27.9173 20.3068 25.1474 23.8011 25.1303 29.6648C25.1218 36.0568 28.5138 38.2216 32.1019 38.2386ZM32.0849 35.3409C30.3803 35.3409 29.119 33.9688 29.119 32.2642C29.1275 30.5682 30.4144 29.1875 32.1104 29.1875C33.815 29.1875 35.0593 30.5256 35.0508 32.2557C35.0593 34.0028 33.7894 35.3409 32.0849 35.3409Z" fill="black"/>
</svg>

<svg xmlns="http://www.w3.org/2000/svg" width="48" height="48" fill="none" viewBox="0 0 48 48">
  <rect width="38" height="38" x="5" y="5" fill="#000" opacity=".2" rx="4"/>
  <path fill="#000" d="M5 13c0-3.771 0-5.657 1.172-6.828C7.343 5 9.229 5 13 5h22c3.771 0 5.657 0 6.828 1.172C43 7.343 43 9.229 43 13v2H5v-2zM16.034 38.239c3.92 0 6.725-2.157 6.716-5.14.009-2.173-1.372-3.724-3.937-4.048v-.136c1.952-.35 3.298-1.73 3.29-3.69.008-2.753-2.404-4.918-6.017-4.918-3.58 0-6.273 2.096-6.324 5.114h3.537c.042-1.33 1.261-2.19 2.77-2.19 1.491 0 2.488.902 2.48 2.215.008 1.372-1.16 2.301-2.838 2.301h-1.628v2.71h1.628c1.977 0 3.213.989 3.204 2.395.009 1.39-1.184 2.344-2.872 2.344-1.628 0-2.847-.852-2.915-2.13H9.412c.06 3.05 2.787 5.173 6.622 5.173zm16.068 0c3.886.017 6.537-2.532 6.528-6.086.009-3.272-2.275-5.633-5.369-5.633-1.918 0-3.614.92-4.398 2.463h-.119c.017-3.4 1.21-5.514 3.486-5.514 1.338 0 2.3.733 2.582 1.951h3.64c-.35-2.872-2.736-5.113-6.222-5.113-4.313 0-7.083 3.494-7.1 9.358-.008 6.392 3.384 8.557 6.972 8.574zm-.017-2.898c-1.705 0-2.966-1.372-2.966-3.077.009-1.696 1.295-3.077 2.991-3.077 1.705 0 2.95 1.339 2.94 3.069.01 1.747-1.26 3.085-2.965 3.085z"/>
</svg>
